Faba/24x24/actions/dialog-apply.svg

<?xml version="1.0" encoding="UTF-8" standalone="no"?>
<!-- Created with Inkscape (http://www.inkscape.org/) -->

<svg
   xmlns:dc="http://purl.org/dc/elements/1.1/"
   xmlns:cc="http://creativecommons.org/ns#"
   xmlns:rdf="http://www.w3.org/1999/02/22-rdf-syntax-ns#"
   xmlns:svg="http://www.w3.org/2000/svg"
   xmlns="http://www.w3.org/2000/svg"
   xmlns:xlink="http://www.w3.org/1999/xlink"
   xmlns:sodipodi="http://sodipodi.sourceforge.net/DTD/sodipodi-0.dtd"
   xmlns:inkscape="http://www.inkscape.org/namespaces/inkscape"
   width="24"
   height="24"
   id="svg3495"
   version="1.1"
   inkscape:version="0.48.4 r9939"
   sodipodi:docname="dialog-apply.svg">
  <defs
     id="defs3497">
    <linearGradient
       inkscape:collect="always"
       xlink:href="#linearGradient3886"
       id="linearGradient3802"
       x1="11"
       y1="0"
       x2="11"
       y2="22"
       gradientUnits="userSpaceOnUse"
       gradientTransform="matrix(1,0,0,-1,0,48)" />
    <linearGradient
       inkscape:collect="always"
       xlink:href="#linearGradient3904"
       id="linearGradient3860"
       x1="161"
       y1="272"
       x2="175"
       y2="272"
       gradientUnits="userSpaceOnUse" />
    <linearGradient
       id="linearGradient3904">
      <stop
         id="stop3906"
         offset="0"
         style="stop-color:#555555;stop-opacity:1;" />
      <stop
         id="stop3908"
         offset="1"
         style="stop-color:#666666;stop-opacity:1;" />
    </linearGradient>
    <linearGradient
       id="linearGradient3886">
      <stop
         style="stop-color:#2ca42a;stop-opacity:1;"
         offset="0"
         id="stop3888" />
      <stop
         style="stop-color:#57d932;stop-opacity:1;"
         offset="1"
         id="stop3890" />
    </linearGradient>
    <linearGradient
       inkscape:collect="always"
       xlink:href="#linearGradient3904"
       id="linearGradient3975"
       x1="1"
       y1="11"
       x2="21"
       y2="11"
       gradientUnits="userSpaceOnUse"
       gradientTransform="matrix(0,-1,1,0,0,48)" />
    <linearGradient
       inkscape:collect="always"
       xlink:href="#linearGradient3904"
       id="linearGradient4138"
       x1="11"
       y1="48"
       x2="11"
       y2="26"
       gradientUnits="userSpaceOnUse"
       gradientTransform="translate(1,-1.4419417)" />
    <linearGradient
       inkscape:collect="always"
       xlink:href="#linearGradient3904"
       id="linearGradient4150"
       gradientUnits="userSpaceOnUse"
       x1="11"
       y1="48"
       x2="11"
       y2="26"
       gradientTransform="translate(0,-26)" />
  </defs>
  <sodipodi:namedview
     id="base"
     pagecolor="#ffffff"
     bordercolor="#666666"
     borderopacity="1.0"
     inkscape:pageopacity="0.0"
     inkscape:pageshadow="2"
     inkscape:zoom="1"
     inkscape:cx="33.926955"
     inkscape:cy="-1.0200875"
     inkscape:current-layer="layer1"
     showgrid="false"
     inkscape:grid-bbox="true"
     inkscape:document-units="px"
     inkscape:window-width="1364"
     inkscape:window-height="700"
     inkscape:window-x="0"
     inkscape:window-y="28"
     inkscape:window-maximized="1"
     inkscape:snap-bbox="true"
     inkscape:bbox-paths="true"
     inkscape:bbox-nodes="true"
     inkscape:snap-bbox-edge-midpoints="false"
     showguides="true"
     inkscape:guide-bbox="true">
    <inkscape:grid
       type="xygrid"
       id="grid3512"
       empspacing="4"
       visible="true"
       enabled="true"
       snapvisiblegridlinesonly="true"
       dotted="false" />
  </sodipodi:namedview>
  <metadata
     id="metadata3500">
    <rdf:RDF>
      <cc:Work
         rdf:about="">
        <dc:format>image/svg+xml</dc:format>
        <dc:type
           rdf:resource="http://purl.org/dc/dcmitype/StillImage" />
        <dc:title></dc:title>
      </cc:Work>
    </rdf:RDF>
  </metadata>
  <g
     id="layer1"
     inkscape:label="Background"
     inkscape:groupmode="layer"
     transform="translate(0,-24)">
    <path
       style="font-size:medium;font-style:normal;font-variant:normal;font-weight:normal;font-stretch:normal;text-indent:0;text-align:start;text-decoration:none;line-height:normal;letter-spacing:normal;word-spacing:normal;text-transform:none;direction:ltr;block-progression:tb;writing-mode:lr-tb;text-anchor:start;baseline-shift:baseline;color:#000000;fill:url(#linearGradient4138);fill-opacity:1;stroke:none;stroke-width:3;marker:none;visibility:visible;display:inline;overflow:visible;enable-background:accumulate;font-family:Sans;-inkscape-font-specification:Sans"
       d="M 19,28.43306 17.9375,29.49556 9,38.43306 6.0625,35.49556 5,34.43306 l -2.125,2.125 1.0625,1.0625 4,4 1.0625,1.0625 1.0625,-1.0625 10,-10 1.0625,-1.0625 -2.125,-2.125 z"
       id="path4126"
       inkscape:connector-curvature="0" />
    <path
       inkscape:connector-curvature="0"
       id="path4140"
       d="M 19,28.43306 17.9375,29.49556 9,38.43306 6.0625,35.49556 5,34.43306 l -2.125,2.125 1.0625,1.0625 4,4 1.0625,1.0625 1.0625,-1.0625 10,-10 1.0625,-1.0625 -2.125,-2.125 z"
       style="font-size:medium;font-style:normal;font-variant:normal;font-weight:normal;font-stretch:normal;text-indent:0;text-align:start;text-decoration:none;line-height:normal;letter-spacing:normal;word-spacing:normal;text-transform:none;direction:ltr;block-progression:tb;writing-mode:lr-tb;text-anchor:start;baseline-shift:baseline;opacity:0.61000001;color:#000000;fill:none;stroke:#000000;stroke-width:1;stroke-miterlimit:4;stroke-opacity:1;stroke-dasharray:none;marker:none;visibility:visible;display:inline;overflow:visible;enable-background:accumulate;font-family:Sans;-inkscape-font-specification:Sans" />
    <path
       style="font-size:medium;font-style:normal;font-variant:normal;font-weight:normal;font-stretch:normal;text-indent:0;text-align:start;text-decoration:none;line-height:normal;letter-spacing:normal;word-spacing:normal;text-transform:none;direction:ltr;block-progression:tb;writing-mode:lr-tb;text-anchor:start;baseline-shift:baseline;opacity:0.2;color:#000000;fill:#ffffff;fill-opacity:1;stroke:none;stroke-width:3;marker:none;visibility:visible;display:inline;overflow:visible;enable-background:accumulate;font-family:Sans;-inkscape-font-specification:Sans"
       d="m 19,29.12056 -0.71875,0.71875 -8.9375,8.9375 L 9,39.15181 8.65625,38.77681 5.71875,35.83931 5,35.12056 l -1.4375,1.4375 0.5,0.5 0.9375,-0.9375 0.71875,0.71875 2.9375,2.9375 0.34375,0.375 0.34375,-0.375 8.9375,-8.9375 L 19,30.12056 l 0.9375,0.9375 0.5,-0.5 L 19,29.12056 z"
       id="path4142"
       inkscape:connector-curvature="0" />
  </g>
  <g
     inkscape:groupmode="layer"
     id="layer2"
     inkscape:label="Symbol"
     transform="translate(0,2)" />
</svg>

<svg xmlns="http://www.w3.org/2000/svg" viewBox="0 0 24 24"><defs><linearGradient id="0" y1="46.558" x2="0" y2="24.558" gradientUnits="userSpaceOnUse"><stop stop-color="#555"/><stop offset="1" stop-color="#666"/></linearGradient></defs><g transform="translate(0-24)" color="#000"><path d="m19 28.433l-1.063 1.063-8.938 8.937-2.938-2.938-1.063-1.063-2.125 2.125 1.063 1.063 4 4 1.063 1.063 1.063-1.063 10-10 1.063-1.063-2.125-2.125" fill="url(#0)"/><path d="m19 28.433l-1.063 1.063-8.938 8.937-2.938-2.938-1.063-1.063-2.125 2.125 1.063 1.063 4 4 1.063 1.063 1.063-1.063 10-10 1.063-1.063-2.125-2.125z" opacity=".61" fill="none" stroke="#000"/><path d="m19 29.12l-.719.719-8.938 8.937-.344.375-.344-.375-2.938-2.938-.719-.719-1.438 1.438.5.5.938-.938.719.719 2.938 2.938.344.375.344-.375 8.938-8.938.719-.719.938.938.5-.5-1.438-1.438" opacity=".2" fill="#fff"/></g></svg>
